packages/dnb-eufemia/assets/icons/factory.svg

<svg width="16" height="17" viewBox="0 0 16 17" fill="none" xmlns="http://www.w3.org/2000/svg">
<path d="M6 12.75H8M10 12.75H12M6.0033 0.829333C6.69138 0.817647 7.37343 0.959295 7.99996 1.244C12.9526 3.358 15 0.75 15 0.75M13.763 7.63415C14.0051 7.78387 13.9585 7.84225 14 7.91667V14.75C14 15.0153 13.8946 15.2696 13.7071 15.4572C13.5196 15.6447 13.2652 15.75 13 15.75H2C1.73478 15.75 1.48043 15.6447 1.29289 15.4572C1.10536 15.2696 1 15.0153 1 14.75V9.25005C1 9.25005 2.49471 2.25016 2.904 2.25005C3.33333 2.24993 3.6305 2.2504 4.096 2.25005C4.33333 2.24987 6 9.25005 6 9.25005C6 9.25005 9.43113 7.61205 9.76299 7.63415C9.84262 7.63945 10 9.25005 10 9.25005C10 9.25005 13.5209 7.48442 13.763 7.63415Z" stroke="black" stroke-width="1.5" stroke-linecap="round" stroke-linejoin="round"/>
</svg>

<svg width="16" height="16" viewBox="0 0 16 16" fill="none" xmlns="http://www.w3.org/2000/svg"><path d="M5.385 12.75h2m2.348 0h2M6.003.83C6.691.817 7.373.96 8 1.243c4.953 2.114 7-.494 7-.494m-1.237 6.884c.242.15.196.208.237.283v6.833a1 1 0 0 1-1 1H2a1 1 0 0 1-1-1v-5.5s1.495-7 1.904-7h1.192c.237 0 1.904 7 1.904 7s3.431-1.638 3.763-1.616C9.843 7.64 10 9.25 10 9.25s3.52-1.766 3.763-1.616Z" stroke="#000" stroke-width="1.5" stroke-linecap="round" stroke-linejoin="round"/></svg>
